X: 11582
Q: "Lively."
M: 2/4
L: 1/16
K: Bb
de |\
f2d2B2d2 | c2A2 F2(de) | f2d2B2d2 | d4 c2 de |\
f2d2B2d2 | c2A2 F2 (de) | =efgf (f_e)dc | (c4 B2) |]
c2a2g2f2 | f4 =e2 ef | g2b2a2g2 | ^g4 a2 (AB) |\
c2(ag) f=edc | d2ba gf=ed | c2c2d2=e2 | g4 "^D.C."f2 |]


